22x22/places/folder-grey-google-drive.svg

<svg xmlns="http://www.w3.org/2000/svg" width="22" height="22" version="1"><rect style="opacity:.2" width="20" height="12" x="1" y="8.5" rx="1" ry="1"/><path style="fill:#727272" d="M1 16c0 .554.446 1 1 1h18c.554 0 1-.446 1-1V5c0-.554-.446-1-1-1h-9C9.5 4 9 2 7.5 2H2c-.554 0-1 .446-1 1"/><rect style="opacity:.2" width="20" height="12" x="1" y="7.5" rx="1" ry="1"/><rect style="fill:#f4f4f7" width="16" height="8" x="3" y="6" rx="1" ry="1"/><rect style="fill:#8e8e8e" width="20" height="12" x="1" y="8" rx="1" ry="1"/><path style="opacity:.1;fill:#f4f4f7" d="M2 2c-.554 0-1 .446-1 1v.5c0-.554.446-1 1-1h5.5c1.5 0 2 2 3.5 2h9c.554 0 1 .446 1 1V5c0-.554-.446-1-1-1h-9C9.5 4 9 2 7.5 2z"/><path style="fill:#f4f4f7" d="M15 14.48 12.333 10H9.75l2.5 4.48zM10.25 14.97 9 17h4.666L15 14.97zM9.5 10.5 7 15l1.333 2 2.517-4z"/></svg>

<svg xmlns="http://www.w3.org/2000/svg" width="22" height="22" version="1">
 <rect style="opacity:0.2" width="20" height="12" x="1" y="8.5" rx="1" ry="1"/>
 <path style="fill:#727272" d="M 1,16 C 1,16.554 1.446,17 2,17 H 20 C 20.554,17 21,16.554 21,16 V 5 C 21,4.446 20.554,4 20,4 H 11 C 9.5,4 9,2 7.5,2 H 2 C 1.446,2 1,2.446 1,3"/>
 <rect style="opacity:0.2" width="20" height="12" x="1" y="7.5" rx="1" ry="1"/>
 <rect style="fill:#f4f4f7" width="16" height="8" x="3" y="6" rx="1" ry="1"/>
 <rect style="fill:#8e8e8e" width="20" height="12" x="1" y="8" rx="1" ry="1"/>
 <path style="opacity:0.1;fill:#f4f4f7" d="M 2,2 C 1.446,2 1,2.446 1,3 V 3.5 C 1,2.946 1.446,2.5 2,2.5 H 7.5 C 9,2.5 9.5,4.5 11,4.5 H 20 C 20.554,4.5 21,4.946 21,5.5 V 5 C 21,4.446 20.554,4 20,4 H 11 C 9.5,4 9,2 7.5,2 Z"/>
 <g>
  <path style="fill:#f4f4f7" d="M 15,14.48 12.333,10 H 9.7499 L 12.25,14.48 Z"/>
  <path style="fill:#f4f4f7" d="M 10.25,14.97 8.9999,17 H 13.666 L 15,14.97 Z"/>
  <path style="fill:#f4f4f7" d="M 9.4999,10.5 7,15 8.3333,17 10.85,13 Z"/>
 </g>
</svg>
